X:1
T:Set américain 3ème partie (LaMadeleine)
M:C|
L:1/8
R:Reel
N:From the playing of fiddler J.O. Albert LaMadeleine
N: (1880-1973, Montreal, Québec)
D:Victor 263646 (78 RPM), J.O. Albert LaMadeleine (1929)
D: http://www.collectionscanada.ca/obj/m2/f7/12827.mp3
Z:Transcribed by Andrew Kuntz
K:D
DFAB dBA2|DFAF EGFE|DFAc d2eg|faec d2d2|
DFAB dBAF|DFAF EGFE|DFAc d2eg|faec d2||
|:ef|gfed ceef|gece d2ef|gfed ceea|fdec d2:|]

